assets/svg/solid/sitemap.svg

<svg xmlns="http://www.w3.org/2000/svg" viewBox="0 0 576 512"><!--! Font Awesome Free 6.6.0 by @fontawesome - https://fontawesome.com License - https://fontawesome.com/license/free (Icons: CC BY 4.0, Fonts: SIL OFL 1.1, Code: MIT License) Copyright 2024 Fonticons, Inc. --><path d="M208 80c0-26.5 21.5-48 48-48l64 0c26.5 0 48 21.5 48 48l0 64c0 26.5-21.5 48-48 48l-8 0 0 40 152 0c30.9 0 56 25.1 56 56l0 32 8 0c26.5 0 48 21.5 48 48l0 64c0 26.5-21.5 48-48 48l-64 0c-26.5 0-48-21.5-48-48l0-64c0-26.5 21.5-48 48-48l8 0 0-32c0-4.4-3.6-8-8-8l-152 0 0 40 8 0c26.5 0 48 21.5 48 48l0 64c0 26.5-21.5 48-48 48l-64 0c-26.5 0-48-21.5-48-48l0-64c0-26.5 21.5-48 48-48l8 0 0-40-152 0c-4.4 0-8 3.6-8 8l0 32 8 0c26.5 0 48 21.5 48 48l0 64c0 26.5-21.5 48-48 48l-64 0c-26.5 0-48-21.5-48-48l0-64c0-26.5 21.5-48 48-48l8 0 0-32c0-30.9 25.1-56 56-56l152 0 0-40-8 0c-26.5 0-48-21.5-48-48l0-64z"/></svg>

<svg xmlns="http://www.w3.org/2000/svg" viewBox="0 0 576 512"><!--! Font Awesome Free 6.5.0 by @fontawesome - https://fontawesome.com License - https://fontawesome.com/license/free (Icons: CC BY 4.0, Fonts: SIL OFL 1.1, Code: MIT License) Copyright 2023 Fonticons, Inc. --><path d="M208 80c0-26.5 21.5-48 48-48h64c26.5 0 48 21.5 48 48v64c0 26.5-21.5 48-48 48h-8v40H464c30.9 0 56 25.1 56 56v32h8c26.5 0 48 21.5 48 48v64c0 26.5-21.5 48-48 48H464c-26.5 0-48-21.5-48-48V368c0-26.5 21.5-48 48-48h8V288c0-4.4-3.6-8-8-8H312v40h8c26.5 0 48 21.5 48 48v64c0 26.5-21.5 48-48 48H256c-26.5 0-48-21.5-48-48V368c0-26.5 21.5-48 48-48h8V280H112c-4.4 0-8 3.6-8 8v32h8c26.5 0 48 21.5 48 48v64c0 26.5-21.5 48-48 48H48c-26.5 0-48-21.5-48-48V368c0-26.5 21.5-48 48-48h8V288c0-30.9 25.1-56 56-56H264V192h-8c-26.5 0-48-21.5-48-48V80z"/></svg>
